X:52
T:An upper part in different speeds
M:3/2
L:1/2
Q:1/2=100
K:Cmin
%%MIDI program 1 70 % Bassoon
%%MIDI program 2 68 % Oboe
V:Bassoon
z2 b|g2 (g/2f/2)|e2 f|g3||z b/g g//f//|e f/g3/2||z/ b//g/ g///f///e/ f//g3/4||
V:Oboe %%name="Oboe" snm="Ob"
z2 c|c2 (B/2c/2)|e2 (f/2e/2)|c2 g|b2 (g/2f/2)|e2 f|g3||

